src/assets/icons/11-icon-cypress.svg

<svg width="65" height="64" viewBox="0 0 65 64" fill="none" xmlns="http://www.w3.org/2000/svg">
<g clip-path="url(#clip0_408_892)">
<path d="M1.42434 40.4786C0.669799 37.7307 0.285645 34.8766 0.285645 32.0019C0.285645 18.8791 8.52732 6.88016 20.7955 2.14844L22.404 6.3114C11.8439 10.3853 4.75118 20.7087 4.75118 32.0019C4.75118 34.4791 5.08042 36.9323 5.72864 39.2964L1.42434 40.4786Z" fill="#58D09E"/>
<path d="M20.5809 2.25038C23.2349 1.21274 26.0332 0.532349 28.8921 0.231864C41.943 -1.13984 54.7377 5.80246 60.7259 17.5088L56.7539 19.5437C51.5985 9.46722 40.5902 3.49247 29.3589 4.67293C26.8953 4.93187 24.4899 5.51574 22.2065 6.40753L20.5809 2.25038Z" fill="#58D09E"/>
<path d="M46.9329 55.2686C55.6473 49.7138 60.5011 39.8558 59.5992 29.5476C59.2797 25.8951 58.266 22.4067 56.5913 19.1862L60.5483 17.122C62.4958 20.8661 63.6755 24.915 64.0467 29.1585C65.0945 41.1341 59.458 52.5822 49.3329 59.0352L46.9329 55.2686Z" fill="white"/>
<path d="M22.7885 25.3993C25.3778 25.3993 27.4871 26.7801 28.571 29.1888L28.6567 29.3773L33.0055 27.9005L32.913 27.6779C31.229 23.5765 27.3499 21.0273 22.7885 21.0273C19.5815 21.0273 16.975 22.0553 14.8211 24.1659C12.6809 26.2628 11.5972 28.9011 11.5972 32.0087C11.5972 35.0889 12.6809 37.7135 14.8211 39.8104C16.975 41.9211 19.5815 42.9489 22.7885 42.9489C27.3499 42.9489 31.229 40.3997 32.913 36.3019L33.0055 36.0792L28.6498 34.5989L28.5675 34.7943C27.5969 37.1619 25.4362 38.5769 22.7885 38.5769C20.9843 38.5769 19.4615 37.9465 18.2542 36.7061C17.0333 35.4487 16.4159 33.8692 16.4159 32.0121C16.4159 30.1413 17.0195 28.5927 18.2542 27.2769C19.4581 26.0299 20.9843 25.3993 22.7885 25.3993Z" fill="white"/>
<path d="M50.0269 21.4316L43.8294 37.1138L37.5908 21.4316H32.4873L41.2365 42.8358L35.0116 57.932L39.4737 58.8195L54.8492 21.4316H50.0269Z" fill="white"/>
<path d="M35.8102 55.9859L34.723 58.6174C34.5068 59.1382 34.013 59.491 33.4574 59.515C33.0904 59.5287 32.72 59.539 32.3462 59.539C19.5498 59.5322 8.22822 50.5107 5.42268 38.0801L1.06689 39.0634C2.64115 46.0359 6.59223 52.3643 12.193 56.8871C17.859 61.4611 24.9962 63.9863 32.2982 64.0001C32.3084 64.0001 32.3632 64.0001 32.3632 64.0001C32.792 64.0001 33.2172 63.9898 33.6426 63.9727C35.9336 63.8767 37.9812 62.4411 38.8558 60.3134L40.2756 56.8734L35.8102 55.9859Z" fill="white"/>
</g>
<defs>
<clipPath id="clip0_408_892">
<rect width="64" height="64" fill="white" transform="translate(0.285645)"/>
</clipPath>
</defs>
</svg>

<svg xmlns="http://www.w3.org/2000/svg" width="65" height="64" fill="none"><g clip-path="url(#a)"><path fill="#58D09E" d="M1.42 40.48A32.03 32.03 0 0 1 .3 32a32.2 32.2 0 0 1 20.5-29.85L22.4 6.3a27.72 27.72 0 0 0-17.65 25.7c0 2.47.33 4.92.98 7.29l-4.3 1.18Z"/><path fill="#58D09E" d="M20.58 2.25A32.03 32.03 0 0 1 28.9.23a32.2 32.2 0 0 1 31.84 17.28l-3.98 2.03a27.72 27.72 0 0 0-27.4-14.87c-2.45.26-4.86.85-7.14 1.74l-1.63-4.16Z"/><path fill="#fff" d="M46.93 55.27A27.55 27.55 0 0 0 59.6 29.55a27.56 27.56 0 0 0-3-10.36l3.95-2.07a32 32 0 0 1 3.5 12.04 32 32 0 0 1-14.72 29.88l-2.4-3.77ZM22.79 25.4c2.59 0 4.7 1.38 5.78 3.79l.09.19L33 27.9l-.1-.22a10.7 10.7 0 0 0-10.12-6.65c-3.2 0-5.81 1.03-7.97 3.14A10.58 10.58 0 0 0 11.6 32c0 3.08 1.08 5.7 3.22 7.8a10.84 10.84 0 0 0 7.97 3.14A10.7 10.7 0 0 0 32.9 36.3l.1-.22-4.36-1.48-.08.2a6.03 6.03 0 0 1-5.78 3.78 6.1 6.1 0 0 1-4.54-1.87 6.5 6.5 0 0 1-1.83-4.7c0-1.87.6-3.42 1.83-4.73a6.07 6.07 0 0 1 4.54-1.88Z"/><path fill="#fff" d="m50.03 21.43-6.2 15.68-6.24-15.68h-5.1l8.75 21.4L35 57.94l4.46.89 15.38-37.39h-4.82Z"/><path fill="#fff" d="m35.81 55.99-1.09 2.63c-.21.52-.7.87-1.26.9l-1.11.02A27.77 27.77 0 0 1 5.42 38.08l-4.35.98A32.1 32.1 0 0 0 32.3 64h.06c.43 0 .86-.01 1.28-.03a5.92 5.92 0 0 0 5.22-3.66l1.42-3.44L35.8 56Z"/></g><defs><clipPath id="a"><path fill="#fff" d="M.29 0h64v64h-64z"/></clipPath></defs></svg>
